**kern	**kern	**dynam
*part1	*part1	*part1
*staff2	*staff1	*
*I"Piano	*	*
*clefF4	*clefG2	*
*k[b-e-a-]	*k[b-e-a-]	*
=1	=1	=1
*^	*^	*
4.B--	4.C-X	4.dd-X	4.e-	.
*v	*v	*	*	*
*	*v	*v	*
=	=	=
4.BB- 4.G-X	(4.e- 4.b-	[
=	=	=
4AA- 4G-X	4e- 4cc-X	.
8BB- 8F	8dn 8b-	.
=	=	=
4E- 4Gn	4e-) 4b-	.
*^	*^	*
8B-	[8E-	[8b-^	8e- 8g	p <
=	=	=	=	=
8.c-XL	4.E-_	4.b-_	8.e-L 8.a-	[
16B-K	.	.	16e-K 16g	.
8cnJ	.	.	8e-J 8a-	.
=	=	=	=	=
[4.B-	4.E-_	4.b-_	[4.e- [4.g	.
=	=	=	=	=
*	*^	*	*	*
4.B-;]	4.E-]	4.EEE-\	4.b-;]	4.e-] 4.g]	ppp
*v	*v	*v	*	*	*
*	*v	*v	*
==	==	==
*-	*-	*-
!!!system-decoration: {(s1,s2)}
